Newaita-dark/actions/24/object-flip-horizontal.svg

<?xml version="1.0" encoding="UTF-8"?>
<svg xmlns="http://www.w3.org/2000/svg" xmlns:xlink="http://www.w3.org/1999/xlink" width="24pt" height="24pt" viewBox="0 0 24 24" version="1.1">
<g id="surface1">
<path style=" stroke:none;fill-rule:nonzero;fill:rgb(47.058824%,56.470591%,61.176473%);fill-opacity:1;" d="M 4.960938 21.523438 L 4.960938 20.53125 C 4.960938 20.253906 5.183594 20.03125 5.457031 20.03125 L 6.449219 20.03125 C 6.722656 20.03125 6.945312 20.253906 6.945312 20.53125 L 6.945312 21.523438 C 6.945312 21.796875 6.722656 22.019531 6.449219 22.019531 L 5.457031 22.019531 C 5.183594 22.019531 4.960938 21.796875 4.960938 21.523438 Z M 4.960938 21.523438 "/>
<path style=" stroke:none;fill-rule:nonzero;fill:rgb(47.058824%,56.470591%,61.176473%);fill-opacity:1;" d="M 4.960938 3.660156 L 4.960938 2.667969 C 4.960938 2.394531 5.183594 2.171875 5.457031 2.171875 L 6.449219 2.171875 C 6.722656 2.171875 6.945312 2.394531 6.945312 2.667969 L 6.945312 3.660156 C 6.945312 3.933594 6.722656 4.15625 6.449219 4.15625 L 5.457031 4.15625 C 5.183594 4.15625 4.960938 3.933594 4.960938 3.660156 Z M 4.960938 3.660156 "/>
<path style=" stroke:none;fill-rule:nonzero;fill:rgb(47.058824%,56.470591%,61.176473%);fill-opacity:1;" d="M 16.867188 3.660156 L 16.867188 2.667969 C 16.867188 2.394531 17.089844 2.171875 17.363281 2.171875 L 18.355469 2.171875 C 18.632812 2.171875 18.851562 2.394531 18.851562 2.667969 L 18.851562 3.660156 C 18.851562 3.933594 18.632812 4.15625 18.355469 4.15625 L 17.363281 4.15625 C 17.089844 4.15625 16.867188 3.933594 16.867188 3.660156 Z M 16.867188 3.660156 "/>
<path style=" stroke:none;fill-rule:nonzero;fill:rgb(47.058824%,56.470591%,61.176473%);fill-opacity:1;" d="M 16.867188 21.523438 L 16.867188 20.53125 C 16.867188 20.253906 17.089844 20.03125 17.363281 20.03125 L 18.355469 20.03125 C 18.632812 20.03125 18.851562 20.253906 18.851562 20.53125 L 18.851562 21.523438 C 18.851562 21.796875 18.632812 22.019531 18.355469 22.019531 L 17.363281 22.019531 C 17.089844 22.019531 16.867188 21.796875 16.867188 21.523438 Z M 16.867188 21.523438 "/>
<path style=" stroke:none;fill-rule:nonzero;fill:rgb(47.058824%,56.470591%,61.176473%);fill-opacity:1;" d="M 10.914062 15.566406 L 10.914062 14.574219 C 10.914062 14.300781 11.136719 14.078125 11.410156 14.078125 L 12.402344 14.078125 C 12.675781 14.078125 12.898438 14.300781 12.898438 14.574219 L 12.898438 15.566406 C 12.898438 15.84375 12.675781 16.0625 12.402344 16.0625 L 11.410156 16.0625 C 11.136719 16.0625 10.914062 15.84375 10.914062 15.566406 Z M 10.914062 15.566406 "/>
<path style=" stroke:none;fill-rule:nonzero;fill:rgb(47.058824%,56.470591%,61.176473%);fill-opacity:1;" d="M 10.914062 9.613281 L 10.914062 8.621094 C 10.914062 8.347656 11.136719 8.125 11.410156 8.125 L 12.402344 8.125 C 12.675781 8.125 12.898438 8.347656 12.898438 8.621094 L 12.898438 9.613281 C 12.898438 9.886719 12.675781 10.109375 12.402344 10.109375 L 11.410156 10.109375 C 11.136719 10.109375 10.914062 9.886719 10.914062 9.613281 Z M 10.914062 9.613281 "/>
<path style=" stroke:none;fill-rule:nonzero;fill:rgb(74.117649%,74.117649%,74.117649%);fill-opacity:1;" d="M 1.984375 16.558594 C 1.984375 17.382812 2.648438 18.046875 3.472656 18.046875 L 8.433594 18.046875 C 9.257812 18.046875 9.921875 17.382812 9.921875 16.558594 L 9.921875 7.628906 C 9.921875 6.804688 9.257812 6.140625 8.433594 6.140625 L 3.472656 6.140625 C 2.648438 6.140625 1.984375 6.804688 1.984375 7.628906 Z M 3.472656 15.566406 L 3.472656 8.621094 C 3.472656 8.070312 3.914062 7.628906 4.464844 7.628906 L 7.441406 7.628906 C 7.992188 7.628906 8.433594 8.070312 8.433594 8.621094 L 8.433594 15.566406 C 8.433594 16.117188 7.992188 16.558594 7.441406 16.558594 L 4.464844 16.558594 C 3.914062 16.558594 3.472656 16.117188 3.472656 15.566406 Z M 3.472656 15.566406 "/>
<path style=" stroke:none;fill-rule:nonzero;fill:rgb(74.117649%,74.117649%,74.117649%);fill-opacity:1;" d="M 13.890625 16.558594 L 13.890625 7.628906 C 13.890625 6.808594 14.558594 6.140625 15.378906 6.140625 L 20.339844 6.140625 C 21.164062 6.140625 21.832031 6.808594 21.832031 7.628906 L 21.832031 16.558594 C 21.832031 17.382812 21.164062 18.046875 20.339844 18.046875 L 15.378906 18.046875 C 14.558594 18.046875 13.890625 17.382812 13.890625 16.558594 Z M 13.890625 16.558594 "/>
</g>
</svg>

<svg xmlns="http://www.w3.org/2000/svg" width="32" height="32" viewBox="0 0 24 24"><path d="M4.96 21.523v-.992c0-.277.224-.5.497-.5h.992c.274 0 .496.223.496.5v.992a.497.497 0 0 1-.496.497h-.992a.497.497 0 0 1-.496-.497zm0 0M4.96 3.66v-.992c0-.273.224-.496.497-.496h.992c.274 0 .496.223.496.496v.992a.497.497 0 0 1-.496.496h-.992a.497.497 0 0 1-.496-.496zm0 0M16.867 3.66v-.992c0-.273.223-.496.496-.496h.992c.278 0 .497.223.497.496v.992a.494.494 0 0 1-.497.496h-.992a.497.497 0 0 1-.496-.496zm0 0M16.867 21.523v-.992c0-.277.223-.5.496-.5h.992c.278 0 .497.223.497.5v.992a.494.494 0 0 1-.497.497h-.992a.497.497 0 0 1-.496-.497zm0 0M10.914 15.566v-.992c0-.273.223-.496.496-.496h.992c.274 0 .496.223.496.496v.992a.494.494 0 0 1-.496.496h-.992a.494.494 0 0 1-.496-.496zm0 0M10.914 9.613v-.992c0-.273.223-.496.496-.496h.992c.274 0 .496.223.496.496v.992a.497.497 0 0 1-.496.496h-.992a.497.497 0 0 1-.496-.496zm0 0" fill="#78909c"/><path d="M1.984 16.559c0 .824.664 1.488 1.489 1.488h4.96c.825 0 1.489-.664 1.489-1.488v-8.93c0-.824-.664-1.488-1.488-1.488H3.473c-.825 0-1.489.664-1.489 1.488zm1.489-.993V8.621c0-.55.441-.992.992-.992H7.44c.551 0 .993.441.993.992v6.945c0 .551-.442.993-.993.993H4.465a.989.989 0 0 1-.992-.993zm0 0M13.89 16.559v-8.93c0-.82.669-1.488 1.489-1.488h4.96c.825 0 1.493.668 1.493 1.488v8.93c0 .824-.668 1.488-1.492 1.488h-4.961c-.82 0-1.488-.664-1.488-1.488zm0 0" fill="#bdbdbd"/></svg>
